X: 33
T:Buggy Ride Jig
% Nottingham Music Database
S:Trad, arr Phil Rowe
M:6/8
K:G
P:INTRO
g|f/2a3/2d f/2a3/2d|fg2 "D7"d^c=c|:"G"B2B BAG|B2B BAG|"G"B/2d3/2G B/2d3/2G|
"Am"Bcc cBc|"D"eff fed|"D"f2f fed|"D7"f/2a3/2d f/2a3/2d|"G"fg2 "D7"gfg::
"G"D2G B2d|"G"b3 -b2f|"G"a2g "E7"f2e|"Am"c3 cBA|"D"c2c cBA|
"D"f2f fed|"Am"f/2a3/2d "D7"f/2a3/2d| [1"G"fg2 gfg:|
 [2"G"g2zz3|"G"g6||<end>
<start>
